X:498
M:C|
L:1/8
K:G
|:B/c/|d3e dBg2|g2fg aAAB|d^cde dBgB|A/B/c BA BGG:|
g|dgbg agbg|dgbg aeeg|dgbg agbg|dedc BGGg|dgbg agbg|
dgbg aeea|bagf gfed|efga bgg||

